!!!SOCIAL_FUNCTION:	songs connected with stories
!!!PDT:	1958
!!!OTL: No_47_The_Neglected_Wife_Is_Pursued_by_Her_Husband.krn
!!!REG: Northern California
!!!LANG: Non-Tone
!!!LING_GROUP: Penutian
**kern
*staff1
=1-
*clefF4
*k[b-e-]
*M2/4
4c\
4c\
=2
8B-\L
8A\J
8A\L
8c\J
=3
4B-\
8A\L
16A\Jk
16r
=4
4B-\
4c\
=5
8B-\L
8A\J
8r
8c\
=6
*M3/4
4B-\
8A\L
8A\J
4A\
=7
4c\
8B-\L
8A\J
8r
8c\
=8
*M2/4
4B-\
8A\L
8A\J
=9
4B-\
4c\
=10
8B-\L
8A\J
4r
=11
16d\LK
8.c\J
16B-\LK
8.c\J
=12
16d\LK
8.d\J
4c\
=13
16c\LK
8.c\J
8B-\L
8c\J
=14
4B-\
(16B-\LL
16G\)
16F\JJ
16r
=15
4c\
(16c\LK
8.B-\J)
=16
8B-\L
8A\J
16A\
16r
8B-\
=17
4c\
8B-\L
16A\Jk
16r
=18
4c\
4B-\
=19
8B-\L
8A\J
8r
8B-\
=20
4c\
8A\L
16A\Jk
16r
=21
4c\
4B-\
=22
8B-\L
8A\J
8r
8B-\
=23
4c\
8A\L
16A\Jk
16r
=24
*M3/4
4c\
4B-\
8A\L
16F\Jk
16r
=25
*M2/4
4d\
8c\L
8c\J
=26
*M3/4
8c\L
16c\L
16B-\JJ
16c\LK
8.c\J
4B-\
=27
*M2/4
16c\LK
8.c\J
8B-\L
8c\J
=28
*M5/8
4B-\
8B-\L
16G\L
16F\JJ
8r
=29
*M2/4
4c\
4B-\
=30
8B-\L
16G\L
16F\JJ
8r
8B-\
=31
4c\
8A\L
16A\Jk
16r
=32
4c\
4B-\
=33
8B-\L
8A\J
8.r
16B-\
=34
4c\
8A\L
16A\Jk
16r
==
*-
